!!!COM: Claude Goudimel
!!!OMD: Psalm 29: Vous tous, Princes et Seigneurs
**kern	**kern	**kern	**kern
*part4	*part3	*part2	*part1
*staff4	*staff3	*staff2	*staff1
*I"bassus	*I"tenor	*I"contra	*I"superius
*clefF3	*clefC3	*clefC2	*clefG2
*k[b-]	*k[b-]	*k[b-]	*k[b-]
!!LO:TX:omd:t=
*M2/2	*M2/2	*M2/2	*M2/2
*met(c|)	*met(c|)	*met(c|)	*met(c|)
=1	=1	=1	=1
1F	1c	1f	1a
=2	=2	=2	=2
1BB-X	1d	1f	1b-
=3	=3	=3	=3
2F	2c	2f	2a
2D	2d	2f	2b-
=4	=4	=4	=4
1C	1e	1g	1cc
=5	=5	=5	=5
1F	1f	1a	1cc
=6	=6	=6	=6
1F	1c	1f	1a
=7	=7	=7	=7
1r	1r	1r	1r
=8	=8	=8	=8
1F	1f	1a	1cc
=9	=9	=9	=9
1C	1e	1g	1cc
=10	=10	=10	=10
2G	2d	2g	2bn
2F	2f	2a	2cc
=11	=11	=11	=11
2G	2e	2g	2cc
2G	2d	2g	2bn
=12	=12	=12	=12
1C	1c	1e	1cc
=13	=13	=13	=13
1r	1r	1r	1r
=14	=14	=14	=14
1F	1c	1f	1a
=15	=15	=15	=15
2F	2A	2c	2f
[2BB-X	[2d	[2d	[2f
=16	=16	=16	=16
2BB-]	2d]	2d]	2f]
2F	2c	2f	2a
=17	=17	=17	=17
2G	2B-	2d	2g
2F	2A	2c	2f
=18	=18	=18	=18
1C	1G	1c	1e
=19	=19	=19	=19
1r	1r	1r	1r
=20	=20	=20	=20
1F	1A	1c	1a
=21	=21	=21	=21
2G	2B-	2B-X	2d
[2F	[2c	[2A	[2f
=22	=22	=22	=22
2F]	2c]	2A]	2f]
2BB-X	2B-	2d	2f
=23	=23	=23	=23
2C	2A	2c	2f
2C	2G	2c	2e
=24	=24	=24	=24
1F	1F	1c	1f
=25	=25	=25	=25
1r	1r	1r	1r
=26	=26	=26	=26
1F	1F	1A	1c
=27	=27	=27	=27
1F	1c	1f	1a
=28	=28	=28	=28
2C	2c	2e	2g
2F	2A	2f	2c
=29	=29	=29	=29
2G	2B-	2d	2g
2A	2c	[2c	2e
=30	=30	=30	=30
1G	1d	2c]	1g
.	.	2B	.
=31	=31	=31	=31
1C	1c	1c	1g
=32	=32	=32	=32
1r	1r	1r	1r
=33	=33	=33	=33
1F	1F	1A	1c
=34	=34	=34	=34
1F	1c	1f	1a
=35	=35	=35	=35
2C	2c	2e	2g
2F	2A	2f	2c
=36	=36	=36	=36
2G	2B-	2d	2g
2A	2c	[2c	2e
=37	=37	=37	=37
1G	1d	2c]	1g
.	.	2B	.
=38	=38	=38	=38
1C	1c	1c	1g
=39	=39	=39	=39
1r	1r	1r	1r
=40	=40	=40	=40
1C	1c	1g	1cc
=41	=41	=41	=41
1G	1d	1g	1bn
=42	=42	=42	=42
2F	2f	2a	2cc
2C	2e	2g	2cc
=43	=43	=43	=43
2D	2d	2f	2b-
2F	2c	2f	2a
=44	=44	=44	=44
1G	1B-	1d	1g
=45	=45	=45	=45
1D	1A	1d	1f#X
=46	=46	=46	=46
1r	1r	1r	1r
=47	=47	=47	=47
1D	1F	1A	1d
=48	=48	=48	=48
2D	2A	2d	2f
[2C	[2c	[2e-X	[2g
=49	=49	=49	=49
2C]	2c]	2e-]	2g]
2C	2G	2c	2e
=50	=50	=50	=50
2BB-X	2B-	2d	2f
2F	2A	2c	[2f
=51	=51	=51	=51
1C	1G	1c	2f]
.	.	.	2e
=52	=52	=52	=52
1F;	1F;	1c;	1f;
==	==	==	==
*-	*-	*-	*-
!!!software: music21 v.9.7.1
!!!software: music21 v.9.1.0
!!!RDF**kern: > = above
!!!RDF**kern: < = below
